src/pos-icons/archive-arrow-down.svg

<svg height="24" viewBox="0 0 24 24" width="24" xmlns="http://www.w3.org/2000/svg"><path d="m3 3h18v4h-18zm1 18v-13h16v13zm10-7v-3h-4v3h-3l5 5 5-5z"/></svg>

<?xml version="1.0" encoding="UTF-8"?><!DOCTYPE svg PUBLIC "-//W3C//DTD SVG 1.1//EN" "http://www.w3.org/Graphics/SVG/1.1/DTD/svg11.dtd"><svg xmlns="http://www.w3.org/2000/svg" xmlns:xlink="http://www.w3.org/1999/xlink" version="1.1" id="mdi-archive-arrow-down" width="24" height="24" viewBox="0 0 24 24"><path d="M3 3H21V7H3V3M4 21V8H20V21H4M14 14V11H10V14H7L12 19L17 14H14Z" /></svg>
